public/avatar/item0/27.svg

<svg xmlns:xlink="http://www.w3.org/1999/xlink" height="58.65" width="49.15" xmlns="http://www.w3.org/2000/svg"><use height="4.8" transform="translate(11.1 32.8)" width="25" xlink:href="#a"/><defs><g id="a" fill-rule="evenodd"><path d="M-12.85 17.05q-.7-2.4 1.65-2.35 3.15.15 3.6 1.95.25.85-.5 1.8-.8 1-1.75 1.05-2.25 0-3-2.45" fill="red" transform="translate(13 -14.7)"/><path d="M-7.6 16.65v.75q-3.2-1.6-5.15-2 .4-.7 1.55-.7 3.15.15 3.6 1.95" transform="translate(13 -14.7)"/><path d="M-12.9 16.7q3.05 1.9 4.15 2.4-.6.35-1.1.4-2.65 0-3.05-2.8" fill="#fbff00" transform="translate(13 -14.7)"/><path d="M10.15 14.7q2.4-.05 1.65 2.35-.7 2.45-3 2.45-.95-.05-1.7-1.05-.75-.95-.5-1.8.45-1.8 3.55-1.95" fill="red" transform="translate(13 -14.7)"/><path d="M6.6 16.65q.45-1.8 3.55-1.95 1.15 0 1.6.7-2.15.45-5.15 2v-.75" transform="translate(13 -14.7)"/><path d="M11.9 16.7q-.5 2.8-3.1 2.8l-1.05-.4 4.15-2.4" fill="#fbff00" transform="translate(13 -14.7)"/></g></defs></svg>

<?xml version="1.0" encoding="UTF-8" standalone="no"?>
<svg xmlns:xlink="http://www.w3.org/1999/xlink" height="58.65px" width="49.15px" xmlns="http://www.w3.org/2000/svg">
  <g transform="matrix(1.0, 0.0, 0.0, 1.0, 24.1, 18.1)">
    <use height="4.8" transform="matrix(1.0, 0.0, 0.0, 1.0, -13.0, 14.7)" width="25.0" xlink:href="#shape0"/>
  </g>
  <defs>
    <g id="shape0" transform="matrix(1.0, 0.0, 0.0, 1.0, 13.0, -14.7)">
      <path d="M-12.85 17.05 Q-13.55 14.65 -11.2 14.7 -8.05 14.85 -7.6 16.65 -7.35 17.5 -8.1 18.45 -8.9 19.45 -9.85 19.5 -12.1 19.5 -12.85 17.05" fill="#ff0000" fill-rule="evenodd" stroke="none"/>
      <path d="M-7.6 16.65 L-7.6 17.4 Q-10.8 15.8 -12.75 15.4 -12.35 14.7 -11.2 14.7 -8.05 14.85 -7.6 16.65" fill="#000000" fill-rule="evenodd" stroke="none"/>
      <path d="M-12.9 16.7 Q-9.85 18.6 -8.75 19.1 -9.35 19.45 -9.85 19.5 -12.5 19.5 -12.9 16.7" fill="#fbff00" fill-rule="evenodd" stroke="none"/>
      <path d="M10.15 14.7 Q12.55 14.65 11.8 17.05 11.1 19.5 8.8 19.5 7.85 19.45 7.1 18.45 6.35 17.5 6.6 16.65 7.05 14.85 10.15 14.7" fill="#ff0000" fill-rule="evenodd" stroke="none"/>
      <path d="M6.6 16.65 Q7.05 14.85 10.15 14.7 11.3 14.7 11.75 15.4 9.6 15.85 6.6 17.4 L6.6 16.65" fill="#000000" fill-rule="evenodd" stroke="none"/>
      <path d="M11.9 16.7 Q11.4 19.5 8.8 19.5 L7.75 19.1 11.9 16.7" fill="#fbff00" fill-rule="evenodd" stroke="none"/>
    </g>
  </defs>
</svg>
